Sources/FrostedUI/Resources/Icons.xcassets/linkAdd16.imageset/link-add-16.svg

<svg width="16" height="16" viewBox="0 0 16 16" fill="none" xmlns="http://www.w3.org/2000/svg" data-fui-icon="true">
  <path
    d="M3.68848 6.00098C3.98137 5.70808 4.45613 5.70808 4.74902 6.00098C5.04192 6.29387 5.04192 6.76863 4.74902 7.06152L2.36719 9.44336C1.81189 9.99886 1.5 10.7526 1.5 11.5381C1.50021 13.1738 2.82619 14.4998 4.46191 14.5C5.24738 14.5 6.00114 14.1881 6.55664 13.6328L8.93848 11.251C9.23137 10.9581 9.70613 10.9581 9.99902 11.251C10.2919 11.5439 10.2919 12.0186 9.99902 12.3115L7.61719 14.6934C6.78038 15.53 5.64521 16 4.46191 16C1.99776 15.9998 0.000214383 14.0022 0 11.5381C0 10.3548 0.470043 9.21962 1.30664 8.38281L3.68848 6.00098ZM13.5 11C13.9142 11 14.25 11.3358 14.25 11.75V12.75H15.25C15.6642 12.75 16 13.0858 16 13.5C16 13.9142 15.6642 14.25 15.25 14.25H14.25V15.25C14.25 15.6642 13.9142 16 13.5 16C13.0858 16 12.75 15.6642 12.75 15.25V14.25H11.75C11.3358 14.25 11 13.9142 11 13.5C11 13.0858 11.3358 12.75 11.75 12.75H12.75V11.75C12.75 11.3358 13.0858 11 13.5 11ZM9.71973 5.21973C10.0126 4.92683 10.4874 4.92683 10.7803 5.21973C11.0732 5.51262 11.0732 5.98738 10.7803 6.28027L6.28027 10.7803C5.98738 11.0732 5.51262 11.0732 5.21973 10.7803C4.92683 10.4874 4.92683 10.0126 5.21973 9.71973L9.71973 5.21973ZM11.5381 0C14.0022 0.000214383 15.9998 1.99776 16 4.46191C16 5.64521 15.53 6.78038 14.6934 7.61719L12.3115 9.99902C12.0186 10.2919 11.5439 10.2919 11.251 9.99902C10.9581 9.70613 10.9581 9.23137 11.251 8.93848L13.6328 6.55664C14.1881 6.00114 14.5 5.24738 14.5 4.46191C14.4998 2.82619 13.1738 1.50021 11.5381 1.5C10.7526 1.5 9.99886 1.81189 9.44336 2.36719L7.06152 4.74902C6.76863 5.04192 6.29387 5.04192 6.00098 4.74902C5.70808 4.45613 5.70808 3.98137 6.00098 3.68848L8.38281 1.30664C9.21962 0.470044 10.3548 0 11.5381 0Z"
    fill="currentColor"
  />
</svg>

<svg xmlns="http://www.w3.org/2000/svg" width="16" height="16" fill="none" data-fui-icon="true" viewBox="0 0 16 16"><path fill="currentColor" d="M3.688 6.001a.75.75 0 1 1 1.061 1.06L2.367 9.444a2.963 2.963 0 0 0 4.19 4.19l2.381-2.382A.75.75 0 1 1 10 12.311l-2.382 2.382a4.463 4.463 0 0 1-6.31-6.31zM13.5 11a.75.75 0 0 1 .75.75v1h1a.75.75 0 0 1 0 1.5h-1v1a.75.75 0 0 1-1.5 0v-1h-1a.75.75 0 0 1 0-1.5h1v-1a.75.75 0 0 1 .75-.75M9.72 5.22a.75.75 0 1 1 1.06 1.06l-4.5 4.5a.75.75 0 1 1-1.06-1.06zM11.538 0a4.462 4.462 0 0 1 3.155 7.617L12.312 10a.75.75 0 1 1-1.061-1.06l2.382-2.382a2.963 2.963 0 0 0-4.19-4.19L7.062 4.75A.75.75 0 1 1 6 3.689l2.382-2.382A4.46 4.46 0 0 1 11.538 0"/></svg>
